packages/assets/static/images/icons/bold/check--bold.svg

<svg width="24" height="24" viewBox="0 0 24 24" xmlns="http://www.w3.org/2000/svg">
<path d="M6.19819 14.9727C5.89955 14.9727 5.6473 14.6663 5.6473 14.3034C5.6473 13.7603 5.19427 13.3205 4.63494 13.3205C4.07561 13.3205 3.62258 13.7603 3.62258 14.3034C3.62258 15.7566 4.77836 16.9386 6.19819 16.9386H6.22941C6.32474 17.3858 6.73222 17.7217 7.22068 17.7217C7.70914 17.7217 8.11662 17.3858 8.21195 16.9386H8.24316C9.66384 16.9386 10.8188 15.7566 10.8188 14.3034C10.8188 13.6391 10.5716 12.9568 10.1405 12.4309C9.64697 11.8296 8.95603 11.4848 8.24316 11.4848H8.23304V10.0079C8.43804 10.0881 8.56628 10.2856 8.56628 10.5485C8.56628 11.0916 9.01931 11.5315 9.57863 11.5315C10.138 11.5315 10.591 11.0916 10.591 10.5485C10.591 9.19365 9.57189 8.11813 8.23304 8.01164V7.89614C8.23304 7.35305 7.78001 6.91318 7.22068 6.91318C6.66135 6.91318 6.20832 7.35305 6.20832 7.89614V8.00263H6.19819C5.48364 8.00263 4.79355 8.34994 4.30508 8.95528C3.88411 9.47789 3.64199 10.1578 3.64199 10.8213C3.64199 12.272 4.78848 13.4515 6.19735 13.4515H6.20748V14.9727H6.19819ZM6.19819 11.4856C5.90545 11.4856 5.66755 11.1874 5.66755 10.8213C5.66755 10.3675 5.99825 9.96937 6.19819 9.96937H6.20832V11.4856H6.19819ZM8.23304 13.4515H8.24316C8.4507 13.4515 8.79406 13.8496 8.79406 14.3034C8.79406 14.6663 8.54181 14.9727 8.24316 14.9727H8.23304V13.4515Z"/>
<path d="M12.0235 14.7359C11.4642 14.7359 11.0111 15.1758 11.0111 15.7189C11.0111 16.262 11.4642 16.7019 12.0235 16.7019H13.5049C14.0642 16.7019 14.5173 16.262 14.5173 15.7189C14.5173 15.1758 14.0642 14.7359 13.5049 14.7359H12.0235Z"/>
<path d="M19.3108 14.7359H15.9447C15.3854 14.7359 14.9323 15.1758 14.9323 15.7189C14.9323 16.262 15.3854 16.7019 15.9447 16.7019H19.3108C19.8701 16.7019 20.3232 16.262 20.3232 15.7189C20.3232 15.1758 19.8701 14.7359 19.3108 14.7359Z"/>
<path d="M19.3108 12.2572H17.5948C17.0355 12.2572 16.5825 12.6971 16.5825 13.2402C16.5825 13.7833 17.0355 14.2231 17.5948 14.2231H19.3108C19.8701 14.2231 20.3232 13.7833 20.3232 13.2402C20.3232 12.6971 19.8701 12.2572 19.3108 12.2572Z"/>
<path d="M11.12 9.49509C10.9301 9.6794 10.8238 9.92923 10.8238 10.1905V12.8118C10.8238 13.3549 11.2769 13.7947 11.8362 13.7947H14.5358C14.8041 13.7947 15.0614 13.6915 15.2521 13.5072L22.676 6.29883C23.0717 5.91465 23.0717 5.29293 22.676 4.90875L19.9764 2.28752C19.7866 2.10321 19.5293 2 19.2602 2C18.9911 2 18.7337 2.10321 18.5439 2.28752L11.12 9.49509ZM14.1165 11.828H12.8486V10.5968L17.2355 6.33732L18.5034 7.56849L14.1165 11.828ZM20.5282 5.60256L19.9351 6.17841L18.6671 4.94725L19.2602 4.3714L20.5282 5.60256Z"/>
<path d="M21.9876 8.24755C21.4283 8.24755 20.9753 8.68743 20.9753 9.23051V18.0641H3.52472V6.63467H12.9945C13.5538 6.63467 14.0069 6.19479 14.0069 5.65171C14.0069 5.10862 13.5538 4.66874 12.9945 4.66874H3.18727C2.25674 4.66874 1.5 5.40351 1.5 6.30702V18.3917C1.5 19.2952 2.25674 20.03 3.18727 20.03H21.3971C22.3108 20.03 23 19.3255 23 18.3917V9.23051C23 8.68743 22.547 8.24755 21.9876 8.24755Z"/>
</svg>

<svg viewBox="0 0 24 24" xmlns="http://www.w3.org/2000/svg" aria-hidden="true" fill="currentColor"><path d="M6.198 14.973c-.298 0-.55-.307-.55-.67 0-.543-.454-.983-1.013-.983-.56 0-1.012.44-1.012.983 0 1.454 1.155 2.636 2.575 2.636h.031c.096.447.503.783.992.783.488 0 .896-.336.99-.783h.032c1.42 0 2.576-1.182 2.576-2.636 0-.664-.247-1.346-.679-1.872-.493-.601-1.184-.946-1.897-.946h-.01v-1.477c.205.08.333.278.333.54 0 .544.453.983 1.013.983s1.012-.44 1.012-.982c0-1.355-1.02-2.43-2.358-2.537v-.116c0-.543-.453-.983-1.012-.983-.56 0-1.013.44-1.013.983v.107h-.01c-.714 0-1.404.347-1.893.952a3.03 3.03 0 0 0-.663 1.866c0 1.451 1.146 2.63 2.555 2.63h.01v1.522zm0-3.487c-.293 0-.53-.299-.53-.665 0-.453.33-.852.53-.852h.01v1.517zm2.035 1.965h.01c.208 0 .551.399.551.852 0 .363-.252.67-.55.67h-.011zm3.79 1.285c-.559 0-1.012.44-1.012.983s.453.983 1.013.983h1.48c.56 0 1.013-.44 1.013-.983s-.453-.983-1.012-.983zm7.288 0h-3.366c-.56 0-1.013.44-1.013.983s.453.983 1.013.983h3.366c.56 0 1.012-.44 1.012-.983s-.453-.983-1.012-.983m0-2.479h-1.716c-.56 0-1.012.44-1.012.983s.453.983 1.012.983h1.716c.56 0 1.012-.44 1.012-.983s-.453-.983-1.012-.983M11.12 9.495a.97.97 0 0 0-.296.696v2.62c0 .544.453.984 1.012.984h2.7c.268 0 .525-.104.716-.288L22.676 6.3a.96.96 0 0 0 0-1.39l-2.7-2.621A1.03 1.03 0 0 0 19.26 2c-.269 0-.526.103-.716.288zm2.997 2.333h-1.268v-1.231l4.386-4.26 1.268 1.231zm6.411-6.225-.593.575-1.268-1.23.593-.577z"/><path d="M21.988 8.248c-.56 0-1.013.44-1.013.983v8.833H3.525V6.634h9.47c.559 0 1.012-.44 1.012-.982 0-.543-.453-.983-1.012-.983H3.187c-.93 0-1.687.735-1.687 1.638v12.085c0 .903.757 1.638 1.687 1.638h18.21c.914 0 1.603-.704 1.603-1.638V9.23c0-.544-.453-.983-1.012-.983"/></svg>
